src/components/Footer/images/logo-2.svg

<svg xmlns="http://www.w3.org/2000/svg" width="470" height="262" fill="none"><g clip-path="url(#a)"><path fill="#2C2C2C" fill-rule="evenodd" d="M243.125 66.169c-9.848 0-18.756 4.136-25.151 10.798a38.456 38.456 0 0 0-30.628-15.14c-21.276 0-38.523 17.222-38.523 38.471a38.324 38.324 0 0 0 3.167 15.299 33.498 33.498 0 0 0-16.552 28.974c0 18.475 14.821 33.45 33.105 33.448a32.895 32.895 0 0 0 6.805-.709c5.022 13.624 18.11 23.342 33.464 23.342 14.743 0 27.396-8.954 32.828-21.73a31.023 31.023 0 0 0 13.672 3.147c11.715 0 21.928-6.455 27.283-16.006 2.723.549 5.538.837 8.425.837 23.614 0 42.755-19.31 42.755-43.134 0-23.823-19.141-43.133-42.755-43.133a42.282 42.282 0 0 0-17.296 3.677c-6.083-10.84-17.508-18.141-30.599-18.141Zm-78.157 65.424-.802 2.227h-.002c-.102.269-.004.362.056.418a.145.145 0 0 1 .03.032c.279.202.561.36.844.519l.289.164c2.021 1.074 3.932 1.382 5.93 1.382 4.067 0 6.597-2.163 6.597-5.645v-.067c0-3.221-2.855-4.392-5.53-5.238l-.347-.109-.003-.001c-2.016-.657-3.754-1.223-3.754-2.548v-.071c0-1.137 1.016-1.974 2.595-1.974a11.74 11.74 0 0 1 5.167 1.325s.397.252.542-.128l.824-2.227c.078-.213-.056-.374-.195-.46-1.531-.929-3.644-1.564-5.831-1.564l-.408.004c-3.722 0-6.323 2.249-6.323 5.473v.069c0 3.397 2.87 4.501 5.553 5.265l.434.139c1.955.598 3.647 1.119 3.647 2.494v.065c0 1.265-1.098 2.202-2.868 2.202a9.624 9.624 0 0 1-5.239-1.51 8.907 8.907 0 0 1-.387-.242 8.872 8.872 0 0 0-.285-.179c-.117-.071-.406-.197-.534.185Zm59.561 0-.805 2.227c-.104.269-.005.362.055.418.012.012.023.022.03.032.279.201.56.359.843.517.097.055.194.109.291.166 2.02 1.074 3.931 1.382 5.931 1.382 4.067 0 6.594-2.163 6.594-5.645v-.067c0-3.221-2.852-4.392-5.527-5.238l-.347-.109c-2.019-.657-3.757-1.223-3.757-2.549v-.071c0-1.137 1.015-1.974 2.594-1.974a11.74 11.74 0 0 1 5.17 1.325s.392.252.542-.128c.071-.208.748-2.03.824-2.227.076-.213-.061-.374-.195-.46-1.534-.929-3.649-1.564-5.835-1.564l-.406.004c-3.722 0-6.325 2.249-6.325 5.473v.069c0 3.397 2.87 4.501 5.557 5.265l.434.139c1.955.598 3.644 1.119 3.644 2.494v.065c0 1.265-1.099 2.202-2.863 2.202-.69 0-2.876-.015-5.245-1.51a12.341 12.341 0 0 1-.435-.27l-.237-.151c-.074-.045-.415-.18-.532.185Zm43.75-4.599c0-1.299-.165-2.529-.499-3.648-.33-1.128-.85-2.122-1.54-2.95a7.476 7.476 0 0 0-2.612-1.983c-1.039-.486-2.26-.731-3.64-.731-1.379 0-2.6.245-3.639.731a7.454 7.454 0 0 0-2.614 1.983c-.688.828-1.206 1.822-1.54 2.95-.332 1.119-.499 2.347-.499 3.648a12.794 12.794 0 0 0 .499 3.649 8.213 8.213 0 0 0 1.542 2.95 7.33 7.33 0 0 0 2.612 1.965c1.036.477 2.264.716 3.639.716 1.376 0 2.599-.239 3.64-.716a7.34 7.34 0 0 0 2.612-1.965 8.177 8.177 0 0 0 1.54-2.952c.334-1.12.499-2.345.499-3.647Zm-4.981-4.598c.725 1.084 1.089 2.631 1.089 4.598 0 1.965-.368 3.523-1.089 4.616-.715 1.087-1.8 1.616-3.31 1.616-1.509 0-2.585-.527-3.288-1.616-.714-1.093-1.076-2.651-1.076-4.616 0-1.967.362-3.514 1.072-4.598.707-1.076 1.783-1.597 3.292-1.597 1.51 0 2.595.521 3.31 1.597Zm33.206 12.607-.833-2.304c-.115-.33-.434-.21-.434-.21a7.635 7.635 0 0 1-1.579.455c-.566.089-1.195.132-1.861.132-1.644 0-2.95-.488-3.885-1.453-.937-.967-1.466-2.531-1.46-4.642.007-1.924.473-3.371 1.306-4.475.824-1.095 2.087-1.655 3.768-1.655 1.399 0 2.47.161 3.588.512 0 0 .264.117.394-.234l.302-.833c.168-.462.331-.91.536-1.486.091-.263-.133-.371-.213-.401-.44-.172-1.484-.454-2.267-.575a17.533 17.533 0 0 0-2.548-.167c-1.423 0-2.699.243-3.784.726a7.848 7.848 0 0 0-2.735 1.983c-.729.829-1.282 1.822-1.651 2.95-.368 1.117-.557 2.351-.557 3.655 0 2.818.764 5.089 2.26 6.759 1.506 1.675 3.762 2.523 6.707 2.523 1.738 0 3.523-.356 4.809-.855 0 0 .245-.123.137-.405Zm16.889-7.392c.049-.347.349-2.47-.347-4.905-.289-1.087-1.002-2.189-1.471-2.692-.742-.798-1.466-1.356-2.186-1.664a8.344 8.344 0 0 0-3.289-.668c-1.436 0-2.742.243-3.796.74a7.542 7.542 0 0 0-2.648 2.017c-.697.844-1.219 1.848-1.556 2.987-.336 1.13-.503 2.366-.503 3.668-.012 1.242.163 2.48.519 3.67.33 1.087.9 2.085 1.668 2.922a7.596 7.596 0 0 0 2.891 1.915c1.156.449 2.56.679 4.172.673 3.323-.009 5.069-.751 5.789-1.148.128-.071.249-.195.098-.548l-.749-2.107c-.119-.312-.434-.199-.434-.199l-.231.087c-.816.312-2.004.767-4.489.761-1.785-.002-3.104-.529-3.935-1.352-.846-.839-1.264-2.075-1.336-3.822l11.495.009s.303-.004.332-.299c0-.008.002-.023.006-.045Zm-3.579-2.504h-8.2c.163-1.093.46-2 .925-2.711.709-1.076 1.78-1.669 3.29-1.669 1.508 0 2.501.593 3.221 1.669.473.711.679 1.657.764 2.711Zm-88.487 2.506c.047-.343.344-2.468-.351-4.907-.286-1.087-1-2.189-1.468-2.692-.74-.798-1.465-1.356-2.185-1.664a8.353 8.353 0 0 0-3.293-.668c-1.431 0-2.737.243-3.796.74a7.553 7.553 0 0 0-2.646 2.017 8.4 8.4 0 0 0-1.557 2.987c-.334 1.13-.504 2.366-.504 3.668-.012 1.243.165 2.48.523 3.67a7.608 7.608 0 0 0 1.664 2.922 7.615 7.615 0 0 0 2.893 1.915c1.154.449 2.558.679 4.172.673 3.319-.009 5.067-.751 5.791-1.148.126-.071.248-.195.096-.548l-.751-2.107c-.117-.312-.431-.199-.431-.199l-.226.085c-.816.313-2.007.769-4.497.763-1.785-.002-3.101-.529-3.932-1.352-.848-.839-1.265-2.075-1.339-3.822l11.497.009s.304-.004.334-.299l.006-.043Zm-3.581-2.506h-8.204c.167-1.093.462-2 .931-2.711.705-1.076 1.779-1.669 3.288-1.669 1.508 0 2.506.593 3.222 1.669.47.711.676 1.657.763 2.711Zm-26.581-.325a38.12 38.12 0 0 0-1.896-.224 23.923 23.923 0 0 0-1.793-.052c-.985 0-1.937.124-2.833.362a7.44 7.44 0 0 0-2.397 1.113 5.53 5.53 0 0 0-1.67 1.896c-.406.759-.617 1.651-.617 2.651 0 1.019.178 1.902.532 2.624a4.756 4.756 0 0 0 1.497 1.799 6.337 6.337 0 0 0 2.34 1.015c.903.206 1.926.31 3.043.31 1.171 0 2.339-.097 3.493-.291a68.836 68.836 0 0 0 2.898-.561c.379-.089.802-.207.802-.207.289-.069.265-.373.265-.373l-.006-10.516c0-2.303-.617-4.013-1.827-5.073-1.208-1.057-2.985-1.59-5.28-1.59-1.033.01-2.064.105-3.082.284 0 0-2.508.488-3.542 1.295 0 0-.228.143-.102.457l.813 2.187c.1.284.378.187.378.187s.084-.035.186-.096c2.213-1.202 5.011-1.167 5.011-1.167 1.241 0 2.199.254 2.842.744.626.484.945 1.206.945 2.74v.486Zm-3.099 8.524c-2.341.144-3.378-.672-3.371-.67-.451-.362-.514-.449-.66-.681-.232-.351-.347-.855-.347-1.499 0-1.006.336-1.733 1.026-2.223-.006.002.992-.859 3.332-.831 1.651.024 3.121.265 3.121.265v5.227s-1.457.313-3.101.412Zm93.059-12.26c.201-.522.759-2.097.867-2.412a.318.318 0 0 0-.068-.344.313.313 0 0 0-.103-.068c-.197-.076-1.176-.282-1.928-.327-1.447-.087-2.248.151-2.964.477-.713.321-1.503.841-1.943 1.431v-1.401c0-.193-.139-.347-.334-.347h-2.944a.334.334 0 0 0-.334.347v17.147a.353.353 0 0 0 .106.248.35.35 0 0 0 .25.099h3.017a.363.363 0 0 0 .134-.026.358.358 0 0 0 .188-.189.343.343 0 0 0 .025-.134v-8.564c0-1.149.131-2.295.382-3.015.247-.716.588-1.286 1.009-1.692a3.434 3.434 0 0 1 1.418-.852 5.502 5.502 0 0 1 1.541-.217c.603 0 1.262.152 1.262.152.223.024.345-.113.419-.313Zm-27.271-9.958c.087-.261-.132-.367-.213-.399-.368-.113-.7-.189-1.136-.272a8.98 8.98 0 0 0-1.564-.119c-2.078 0-3.716.586-4.868 1.746-1.145 1.152-1.919 2.907-2.31 5.215l-.141.777h-2.605s-.323-.013-.391.334l-.425 2.39c-.034.23.07.373.373.373h2.538l-2.577 14.388c-.199 1.156-.431 2.111-.685 2.833-.254.714-.501 1.245-.805 1.638-.291.373-.573.653-1.05.807-.397.134-.852.195-1.353.195-.28 0-.649-.048-.924-.102a2.767 2.767 0 0 1-.619-.197s-.299-.113-.416.182c-.091.245-.772 2.108-.85 2.336-.083.23.032.41.173.46.344.124.696.226 1.052.308.64.152 1.182.163 1.686.163 1.056 0 2.023-.15 2.82-.443a5.274 5.274 0 0 0 2.123-1.479c.673-.74 1.091-1.514 1.497-2.575.45-1.255.788-2.547 1.011-3.861l2.588-14.655h3.787s.314.013.384-.334l.429-2.391c.031-.227-.067-.37-.377-.37h-3.675c.004-.014.011-.059.022-.13.059-.37.231-1.444.586-2.463.175-.464.45-.883.807-1.227.267-.274.598-.478.963-.595.364-.121.776-.18 1.232-.18.52.002 1.037.083 1.533.239.376.113.423.004.497-.178l.883-2.414Zm-51.899 24.808c.195 0 .329-.154.329-.349v-24.535c0-.191-.134-.347-.329-.347h-3.05c-.191 0-.325.156-.325.345v24.539c0 .191.132.347.327.347h3.048Z" clip-rule="evenodd"/></g><defs><clipPath id="a"><path fill="#fff" d="M135.438 61.826H335v138.826H135.438z"/></clipPath></defs></svg>

<svg width="470" height="262" viewBox="0 0 470 262" fill="none" xmlns="http://www.w3.org/2000/svg">
<g clip-path="url(#clip0_1_122)">
<path fill-rule="evenodd" clip-rule="evenodd" d="M243.125 66.1688C233.277 66.1688 224.369 70.3054 217.974 76.9669C214.381 72.2538 209.746 68.435 204.433 65.8086C199.12 63.1822 193.272 61.8192 187.346 61.8261C166.07 61.8261 148.823 79.0492 148.823 100.298C148.817 105.561 149.895 110.769 151.99 115.597C146.94 118.559 142.754 122.793 139.849 127.876C136.945 132.96 135.424 138.716 135.438 144.571C135.438 163.046 150.259 178.021 168.543 178.019C170.83 178.02 173.111 177.782 175.348 177.31C180.37 190.934 193.458 200.652 208.812 200.652C223.555 200.652 236.208 191.698 241.64 178.922C245.767 180.941 250.407 182.069 255.312 182.069C267.027 182.069 277.24 175.614 282.595 166.063C285.318 166.612 288.133 166.9 291.02 166.9C314.634 166.9 333.775 147.59 333.775 123.766C333.775 99.9426 314.634 80.6327 291.02 80.6327C285.06 80.6256 279.166 81.8785 273.724 84.3095C267.641 73.4702 256.216 66.1688 243.125 66.1688ZM164.968 131.593L164.166 133.82H164.164C164.062 134.089 164.16 134.182 164.22 134.238C164.233 134.249 164.244 134.26 164.25 134.27C164.529 134.472 164.811 134.63 165.094 134.789C165.19 134.843 165.286 134.897 165.383 134.953C167.404 136.027 169.315 136.335 171.313 136.335C175.38 136.335 177.91 134.172 177.91 130.69V130.623C177.91 127.402 175.055 126.231 172.38 125.385L172.033 125.276L172.03 125.275C170.014 124.618 168.276 124.052 168.276 122.727V122.656C168.276 121.519 169.292 120.682 170.871 120.682C172.672 120.721 174.44 121.175 176.038 122.007C176.038 122.007 176.435 122.259 176.58 121.879L177.404 119.652C177.482 119.439 177.348 119.278 177.209 119.192C175.678 118.263 173.565 117.628 171.378 117.628L170.97 117.632C167.248 117.632 164.647 119.881 164.647 123.105V123.174C164.647 126.571 167.517 127.675 170.2 128.439L170.634 128.578C172.589 129.176 174.281 129.697 174.281 131.072V131.137C174.281 132.402 173.183 133.339 171.413 133.339C170.73 133.339 168.539 133.324 166.174 131.829C166.018 131.737 165.898 131.66 165.787 131.587C165.693 131.526 165.604 131.469 165.502 131.408C165.385 131.337 165.096 131.211 164.968 131.593ZM224.529 131.593L223.724 133.82C223.62 134.089 223.719 134.182 223.779 134.238C223.791 134.25 223.802 134.26 223.809 134.27C224.088 134.471 224.369 134.629 224.652 134.787C224.749 134.842 224.846 134.896 224.943 134.953C226.963 136.027 228.874 136.335 230.874 136.335C234.941 136.335 237.468 134.172 237.468 130.69V130.623C237.468 127.402 234.616 126.231 231.941 125.385L231.594 125.276C229.575 124.619 227.837 124.053 227.837 122.727V122.656C227.837 121.519 228.852 120.682 230.431 120.682C232.233 120.721 234.002 121.174 235.601 122.007C235.601 122.007 235.993 122.259 236.143 121.879C236.214 121.671 236.891 119.849 236.967 119.652C237.043 119.439 236.906 119.278 236.772 119.192C235.238 118.263 233.123 117.628 230.937 117.628L230.531 117.632C226.809 117.632 224.206 119.881 224.206 123.105V123.174C224.206 126.571 227.076 127.675 229.763 128.439L230.197 128.578C232.152 129.176 233.841 129.697 233.841 131.072V131.137C233.841 132.402 232.742 133.339 230.978 133.339C230.288 133.339 228.102 133.324 225.733 131.829C225.555 131.724 225.424 131.64 225.298 131.559C225.22 131.509 225.144 131.46 225.061 131.408C224.987 131.363 224.646 131.228 224.529 131.593ZM268.279 126.994C268.279 125.695 268.114 124.465 267.78 123.346C267.45 122.218 266.93 121.224 266.24 120.396C265.546 119.563 264.665 118.897 263.628 118.413C262.589 117.927 261.368 117.682 259.988 117.682C258.609 117.682 257.388 117.927 256.349 118.413C255.341 118.872 254.448 119.549 253.735 120.396C253.047 121.224 252.529 122.218 252.195 123.346C251.863 124.465 251.696 125.693 251.696 126.994C251.685 128.228 251.854 129.457 252.195 130.643C252.502 131.721 253.027 132.725 253.737 133.593C254.449 134.436 255.341 135.108 256.349 135.558C257.385 136.035 258.613 136.274 259.988 136.274C261.364 136.274 262.587 136.035 263.628 135.558C264.635 135.108 265.528 134.436 266.24 133.593C266.95 132.725 267.475 131.72 267.78 130.641C268.114 129.521 268.279 128.296 268.279 126.994ZM263.298 122.396C264.023 123.48 264.387 125.027 264.387 126.994C264.387 128.959 264.019 130.517 263.298 131.61C262.583 132.697 261.498 133.226 259.988 133.226C258.479 133.226 257.403 132.699 256.7 131.61C255.986 130.517 255.624 128.959 255.624 126.994C255.624 125.027 255.986 123.48 256.696 122.396C257.403 121.32 258.479 120.799 259.988 120.799C261.498 120.799 262.583 121.32 263.298 122.396ZM296.504 135.003L295.671 132.699C295.556 132.369 295.237 132.489 295.237 132.489C294.743 132.682 294.218 132.855 293.658 132.944C293.092 133.033 292.463 133.076 291.797 133.076C290.153 133.076 288.847 132.588 287.912 131.623C286.975 130.656 286.446 129.092 286.452 126.981C286.459 125.057 286.925 123.61 287.758 122.506C288.582 121.411 289.845 120.851 291.526 120.851C292.925 120.851 293.996 121.012 295.114 121.363C295.114 121.363 295.378 121.48 295.508 121.129C295.616 120.829 295.714 120.56 295.81 120.296C295.978 119.834 296.141 119.386 296.346 118.81C296.437 118.547 296.213 118.439 296.133 118.409C295.693 118.237 294.649 117.955 293.866 117.834C293.133 117.725 292.278 117.667 291.318 117.667C289.895 117.667 288.619 117.91 287.534 118.393C286.489 118.848 285.556 119.524 284.799 120.376C284.07 121.205 283.517 122.198 283.148 123.326C282.78 124.443 282.591 125.677 282.591 126.981C282.591 129.799 283.355 132.07 284.851 133.74C286.357 135.415 288.613 136.263 291.558 136.263C293.296 136.263 295.081 135.907 296.367 135.408C296.367 135.408 296.612 135.285 296.504 135.003ZM313.393 127.611C313.442 127.264 313.742 125.141 313.046 122.706C312.757 121.619 312.044 120.517 311.575 120.014C310.833 119.216 310.109 118.658 309.389 118.35C308.454 117.947 307.33 117.682 306.1 117.682C304.664 117.682 303.358 117.925 302.304 118.422C301.282 118.889 300.377 119.578 299.656 120.439C298.959 121.283 298.437 122.287 298.1 123.426C297.764 124.556 297.597 125.792 297.597 127.094C297.585 128.336 297.76 129.574 298.116 130.764C298.446 131.851 299.016 132.849 299.784 133.686C300.587 134.539 301.577 135.194 302.675 135.601C303.831 136.05 305.235 136.28 306.847 136.274C310.17 136.265 311.916 135.523 312.636 135.126C312.764 135.055 312.885 134.931 312.734 134.578L311.985 132.471C311.866 132.159 311.551 132.272 311.551 132.272C311.477 132.299 311.401 132.328 311.32 132.359C310.504 132.671 309.316 133.126 306.831 133.12C305.046 133.118 303.727 132.591 302.896 131.768C302.05 130.929 301.632 129.693 301.56 127.946L313.055 127.955C313.055 127.955 313.358 127.951 313.387 127.656C313.387 127.648 313.389 127.633 313.393 127.611ZM309.814 125.107H301.614C301.777 124.014 302.074 123.107 302.539 122.396C303.248 121.32 304.319 120.727 305.829 120.727C307.337 120.727 308.33 121.32 309.05 122.396C309.523 123.107 309.729 124.053 309.814 125.107ZM221.327 127.613C221.374 127.27 221.671 125.145 220.976 122.706C220.69 121.619 219.976 120.517 219.508 120.014C218.768 119.216 218.043 118.658 217.323 118.35C216.282 117.907 215.162 117.679 214.03 117.682C212.599 117.682 211.293 117.925 210.234 118.422C209.213 118.889 208.31 119.578 207.588 120.439C206.873 121.319 206.343 122.335 206.031 123.426C205.697 124.556 205.527 125.792 205.527 127.094C205.515 128.337 205.692 129.574 206.05 130.764C206.38 131.85 206.948 132.848 207.714 133.686C208.518 134.538 209.508 135.194 210.607 135.601C211.761 136.05 213.165 136.28 214.779 136.274C218.098 136.265 219.846 135.523 220.57 135.126C220.696 135.055 220.818 134.931 220.666 134.578L219.915 132.471C219.798 132.159 219.484 132.272 219.484 132.272C219.411 132.299 219.336 132.327 219.258 132.357C218.442 132.67 217.251 133.126 214.761 133.12C212.976 133.118 211.66 132.591 210.829 131.768C209.981 130.929 209.564 129.693 209.49 127.946L220.987 127.955C220.987 127.955 221.291 127.951 221.321 127.656C221.322 127.649 221.324 127.634 221.327 127.613ZM217.746 125.107H209.542C209.709 124.014 210.004 123.107 210.473 122.396C211.178 121.32 212.252 120.727 213.761 120.727C215.269 120.727 216.267 121.32 216.983 122.396C217.453 123.107 217.659 124.053 217.746 125.107ZM191.165 124.782C190.176 124.638 189.269 124.558 189.269 124.558C188.801 124.521 188.198 124.506 187.476 124.506C186.491 124.506 185.539 124.63 184.643 124.868C183.784 125.093 182.972 125.47 182.246 125.981C181.543 126.482 180.983 127.122 180.576 127.877C180.17 128.636 179.959 129.528 179.959 130.528C179.959 131.547 180.137 132.43 180.491 133.152C180.832 133.867 181.347 134.485 181.988 134.951C182.691 135.444 183.487 135.79 184.328 135.966C185.231 136.172 186.254 136.276 187.371 136.276C188.542 136.276 189.71 136.179 190.864 135.985C191.994 135.794 193.378 135.512 193.762 135.424C194.141 135.335 194.564 135.217 194.564 135.217C194.853 135.148 194.829 134.844 194.829 134.844L194.823 124.328C194.823 122.025 194.206 120.315 192.996 119.255C191.788 118.198 190.011 117.665 187.716 117.665C186.683 117.675 185.652 117.77 184.634 117.949C184.634 117.949 182.126 118.437 181.092 119.244C181.092 119.244 180.864 119.387 180.99 119.701L181.803 121.888C181.903 122.172 182.181 122.075 182.181 122.075C182.181 122.075 182.265 122.04 182.367 121.979C184.58 120.777 187.378 120.812 187.378 120.812C188.619 120.812 189.577 121.066 190.22 121.556C190.846 122.04 191.165 122.762 191.165 124.296V124.782ZM188.066 133.306C185.725 133.45 184.688 132.634 184.695 132.636C184.244 132.274 184.181 132.187 184.035 131.955C183.803 131.604 183.688 131.1 183.688 130.456C183.688 129.45 184.024 128.723 184.714 128.233C184.708 128.235 185.706 127.374 188.046 127.402C189.697 127.426 191.167 127.667 191.167 127.667V132.894C191.167 132.894 189.71 133.207 188.066 133.306ZM281.125 121.046C281.326 120.524 281.884 118.949 281.992 118.634C282.009 118.596 282.017 118.555 282.017 118.513C282.017 118.472 282.009 118.431 281.993 118.392C281.977 118.354 281.954 118.319 281.924 118.29C281.895 118.261 281.86 118.238 281.821 118.222C281.624 118.146 280.645 117.94 279.893 117.895C278.446 117.808 277.645 118.046 276.929 118.372C276.216 118.693 275.426 119.213 274.986 119.803V118.402C274.986 118.209 274.847 118.055 274.652 118.055H271.708C271.515 118.055 271.374 118.209 271.374 118.402V135.549C271.375 135.595 271.384 135.641 271.403 135.683C271.421 135.726 271.447 135.764 271.48 135.797C271.513 135.829 271.552 135.854 271.595 135.871C271.638 135.888 271.684 135.897 271.73 135.896H274.747C274.793 135.896 274.838 135.887 274.881 135.87C274.923 135.852 274.961 135.826 274.993 135.794C275.026 135.761 275.051 135.723 275.069 135.681C275.086 135.638 275.095 135.593 275.094 135.547V126.983C275.094 125.834 275.225 124.688 275.476 123.968C275.723 123.252 276.064 122.682 276.485 122.276C276.881 121.881 277.368 121.588 277.903 121.424C278.437 121.259 279.029 121.207 279.444 121.207C280.047 121.207 280.706 121.359 280.706 121.359C280.929 121.383 281.051 121.246 281.125 121.046ZM253.854 111.088C253.941 110.827 253.722 110.721 253.641 110.689C253.273 110.576 252.941 110.5 252.505 110.417C252.06 110.337 251.535 110.298 250.941 110.298C248.863 110.298 247.225 110.884 246.073 112.044C244.928 113.196 244.154 114.951 243.763 117.259L243.622 118.036H241.017C241.017 118.036 240.694 118.023 240.626 118.37L240.201 120.76C240.167 120.99 240.271 121.133 240.574 121.133H243.112L240.535 135.521C240.336 136.677 240.104 137.632 239.85 138.354C239.596 139.068 239.349 139.599 239.045 139.992C238.754 140.365 238.472 140.645 237.995 140.799C237.598 140.933 237.143 140.994 236.642 140.994C236.362 140.994 235.993 140.946 235.718 140.892C235.447 140.838 235.303 140.781 235.099 140.695C235.099 140.695 234.8 140.582 234.683 140.877C234.592 141.122 233.911 142.985 233.833 143.213C233.75 143.443 233.865 143.623 234.006 143.673C234.35 143.797 234.702 143.899 235.058 143.981C235.698 144.133 236.24 144.144 236.744 144.144C237.8 144.144 238.767 143.994 239.564 143.701C240.383 143.392 241.113 142.884 241.687 142.222C242.36 141.482 242.778 140.708 243.184 139.647C243.634 138.392 243.972 137.1 244.195 135.786L246.783 121.131H250.57C250.57 121.131 250.884 121.144 250.954 120.797L251.383 118.406C251.414 118.179 251.316 118.036 251.006 118.036H247.331C247.335 118.022 247.342 117.977 247.353 117.906C247.412 117.536 247.584 116.462 247.939 115.443C248.114 114.979 248.389 114.56 248.746 114.216C249.013 113.942 249.344 113.738 249.709 113.621C250.073 113.5 250.485 113.441 250.941 113.441C251.461 113.443 251.978 113.524 252.474 113.68C252.85 113.793 252.897 113.684 252.971 113.502L253.854 111.088ZM201.955 135.896C202.15 135.896 202.284 135.742 202.284 135.547V111.012C202.284 110.821 202.15 110.665 201.955 110.665H198.905C198.714 110.665 198.58 110.821 198.58 111.01V135.549C198.58 135.74 198.712 135.896 198.907 135.896H201.955Z" fill="white"/>
</g>
<defs>
<clipPath id="clip0_1_122">
<rect width="199.562" height="138.826" fill="white" transform="translate(135.438 61.8261)"/>
</clipPath>
</defs>
</svg>
